static/assets/images/icons/downward.svg

<svg width="256" height="256" viewBox="0 0 256 256" fill="none" xmlns="http://www.w3.org/2000/svg">
<path fill-rule="evenodd" clip-rule="evenodd" d="M115.211 42.5001C118.218 31.7142 135.119 30.9919 139.02 41.4876C139.625 43.1141 139.987 44.9404 139.987 46.9821V182.482L176.658 150.959C179.003 148.621 182.182 147.308 185.498 147.308C188.814 147.308 191.994 148.621 194.338 150.959C196.683 153.297 198 156.467 198 159.773C198 163.079 196.683 166.25 194.338 168.588L135.984 219.076C130.622 223.715 122.643 223.631 117.379 218.88L61.6617 168.588C59.3172 166.25 58 163.079 58 159.773C58 156.467 59.3172 153.297 61.6617 150.959C64.0062 148.621 67.1861 147.308 70.5018 147.308C73.8175 147.308 76.9974 148.621 79.3419 150.959L114.609 182.482V46.9821C114.609 45.3603 114.829 43.8681 115.211 42.5001Z" fill="black"/>
</svg>

<svg xmlns="http://www.w3.org/2000/svg" viewBox="0 0 256 256"><path fill-rule="evenodd" d="M115.211 42.5c3.007-10.786 19.908-11.508 23.809-1.012a15.6 15.6 0 0 1 .967 5.494v135.5l36.671-31.523a12.52 12.52 0 0 1 8.84-3.651c3.316 0 6.496 1.313 8.84 3.651a12.45 12.45 0 0 1 3.662 8.814c0 3.306-1.317 6.477-3.662 8.815l-58.354 50.488a14.05 14.05 0 0 1-18.605-.196l-55.717-50.292A12.45 12.45 0 0 1 58 159.773c0-3.306 1.317-6.476 3.662-8.814a12.52 12.52 0 0 1 8.84-3.651 12.52 12.52 0 0 1 8.84 3.651l35.267 31.523v-135.5c0-1.622.22-3.114.602-4.482" clip-rule="evenodd"/></svg>
